resources/icons/scalable/status/illustration-appearance-dark-style-round.svg

<svg width="191" height="100" fill="none" version="1.1" viewBox="0 0 191 100" xmlns="http://www.w3.org/2000/svg">
 <g fill="#fff">
  <path d="m16 22c0-5.5228 4.4772-10 10-10h139c5.523 0 10 4.4772 10 10s-4.477 10-10 10h-139c-5.5228 0-10-4.4772-10-10z" opacity=".6"/>
  <path d="m36.745 23.714-1.0665 1.0665 2.2575 2.2575c0.7192 0.7027 1.7737-0.375 1.0545-1.0785l-2.2455-2.2455z"/>
  <path d="m32.838 16.75c-1.094 0-2.1432 0.4346-2.9168 1.2082s-1.2082 1.8228-1.2082 2.9168 0.4346 2.1432 1.2082 2.9168 1.8228 1.2082 2.9168 1.2082 2.1432-0.4346 2.9168-1.2082 1.2082-1.8228 1.2082-2.9168-0.4346-2.1432-1.2082-2.9168-1.8228-1.2082-2.9168-1.2082zm0 1.5c0.6962 0 1.3639 0.2766 1.8561 0.7688 0.4923 0.4923 0.7689 1.16 0.7689 1.8562s-0.2766 1.3639-0.7689 1.8562c-0.4922 0.4922-1.1599 0.7688-1.8561 0.7688s-1.3639-0.2766-1.8562-0.7688c-0.4922-0.4923-0.7688-1.16-0.7688-1.8562s0.2766-1.3639 0.7688-1.8562c0.4923-0.4922 1.16-0.7688 1.8562-0.7688z"/>
  <path d="m16 44c0-2.2091 1.7909-4 4-4h95c2.209 0 4 1.7909 4 4s-1.791 4-4 4h-95c-2.2091 0-4-1.7909-4-4z" opacity=".5"/>
  <path d="m16 56c0-2.2091 1.7909-4 4-4h151c2.209 0 4 1.7909 4 4s-1.791 4-4 4h-151c-2.2091 0-4-1.7909-4-4z" opacity=".5"/>
  <path d="m71 78c0-5.5228 4.4772-10 10-10h28c5.523 0 10 4.4772 10 10s-4.477 10-10 10h-28c-5.5228 0-10-4.4772-10-10z" opacity=".6"/>
  <path d="m127 78c0-5.5228 4.477-10 10-10h28c5.523 0 10 4.4772 10 10s-4.477 10-10 10h-28c-5.523 0-10-4.4772-10-10z" opacity=".8"/>
 </g>
</svg>

<svg width="191" height="100" viewBox="0 0 191 100" fill="none" xmlns="http://www.w3.org/2000/svg">
<path opacity="0.4" d="M16 22C16 16.4772 20.4772 12 26 12H165C170.523 12 175 16.4772 175 22C175 27.5228 170.523 32 165 32H26C20.4772 32 16 27.5228 16 22Z" fill="white"/>
<path d="M36.7454 23.7139L35.6789 24.7804L37.9364 27.0379C38.6556 27.7406 39.7101 26.6629 38.9909 25.9594L36.7454 23.7139Z" fill="white"/>
<path d="M32.8379 16.75C31.7439 16.75 30.6947 17.1846 29.9211 17.9582C29.1475 18.7318 28.7129 19.781 28.7129 20.875C28.7129 21.969 29.1475 23.0182 29.9211 23.7918C30.6947 24.5654 31.7439 25 32.8379 25C33.9319 25 34.9811 24.5654 35.7547 23.7918C36.5283 23.0182 36.9629 21.969 36.9629 20.875C36.9629 19.781 36.5283 18.7318 35.7547 17.9582C34.9811 17.1846 33.9319 16.75 32.8379 16.75ZM32.8379 18.25C33.5341 18.25 34.2018 18.5266 34.694 19.0188C35.1863 19.5111 35.4629 20.1788 35.4629 20.875C35.4629 21.5712 35.1863 22.2389 34.694 22.7312C34.2018 23.2234 33.5341 23.5 32.8379 23.5C32.1417 23.5 31.474 23.2234 30.9817 22.7312C30.4895 22.2389 30.2129 21.5712 30.2129 20.875C30.2129 20.1788 30.4895 19.5111 30.9817 19.0188C31.474 18.5266 32.1417 18.25 32.8379 18.25Z" fill="white"/>
<path opacity="0.2" d="M16 44C16 41.7909 17.7909 40 20 40H115C117.209 40 119 41.7909 119 44C119 46.2091 117.209 48 115 48H20C17.7909 48 16 46.2091 16 44Z" fill="white"/>
<path opacity="0.2" d="M16 56C16 53.7909 17.7909 52 20 52H171C173.209 52 175 53.7909 175 56C175 58.2091 173.209 60 171 60H20C17.7909 60 16 58.2091 16 56Z" fill="white"/>
<path opacity="0.4" d="M71 78C71 72.4772 75.4772 68 81 68H109C114.523 68 119 72.4772 119 78C119 83.5228 114.523 88 109 88H81C75.4772 88 71 83.5228 71 78Z" fill="white"/>
<path opacity="0.6" d="M127 78C127 72.4772 131.477 68 137 68H165C170.523 68 175 72.4772 175 78C175 83.5228 170.523 88 165 88H137C131.477 88 127 83.5228 127 78Z" fill="white"/>
</svg>
